Papirus-Dark/symbolic/status/my-caffeine-off-symbolic.svg

<?xml version='1.0' encoding='UTF-8' standalone='no'?>
<svg height="16" style="enable-background:new" version="1.1" width="16" xmlns="http://www.w3.org/2000/svg">
<path
     inkscape:connector-curvature="0"
     style="opacity:1;fill:#d3dae3;fill-opacity:1"
     d="m 4.0000002,6 c -2.209139,0 -4,1.790861 -4,4 0,2.209139 1.790861,4 4,4 0.242459,-8.38e-4 0.48434,-0.02372 0.722656,-0.06836 C 5.4620202,15.481091 6.9580362,16 10,16 c 6,0 6,-2 6,-10 z m 0,2 h 0.0078 c 0.01161,1.596219 0.05217,2.938455 0.195312,3.986328 -0.06743,0.008 -0.135226,0.01257 -0.203122,0.01367 -1.10457,0 -2,-0.895431 -2,-2 0,-1.104569 0.89543,-2 2,-2 z" />
</svg>

<svg xmlns="http://www.w3.org/2000/svg" width="16" height="16" version="1.1">
 <path style="fill:#d3dae3" d="M 4,6 C 1.7909,6 0,7.79 0,10 0,12.21 1.7909,14 4,14 4.2425,14 4.4843,13.98 4.7227,13.93 5.462,15.48 6.958,16 10,16 16,16 16,14 16,6 Z M 4,8 H 4.0078 C 4.0194,9.6 4.06,10.94 4.2031,11.99 4.1357,11.99 4.0679,12 4,12 2.8954,12 2,11.1 2,10 2,8.9 2.8954,8 4,8 Z"/>
</svg>
